; generated by Slic3r Prusa Edition 1.38.6-prusa3d-win64 on 2018-10-23 at 21:07:53

; 

; external perimeters extrusion width = 0.45mm
; perimeters extrusion width = 0.45mm
; infill extrusion width = 0.45mm
; solid infill extrusion width = 0.45mm
; top infill extrusion width = 0.40mm
; first layer extrusion width = 0.42mm

M107
M115 U3.1.0 ; tell printer latest fw version
M83  ; extruder relative mode
M104 S215 ; set extruder temp
M140 S60 ; set bed temp
M190 S60 ; wait for bed temp
M109 S215 ; wait for extruder temp
G28 W ; home all without mesh bed level
G80 ; mesh bed leveling
G1 Y-3.0 F1000.0 ; go outside print area
G92 E0.0
G1 X60.0 E9.0  F1000.0 ; intro line
G1 X100.0 E12.5  F1000.0 ; intro line
G92 E0.0
M900 K30; Filament gcode
G21 ; set units to millimeters
G90 ; use absolute coordinates
M83 ; use relative distances for extrusion
;BEFORE_LAYER_CHANGE
;0.25


G1 E-0.80000 F2100.00000
G1 Z0.250 F7200.000
;AFTER_LAYER_CHANGE
;0.25
G1 X94.178 Y84.189 F7200.000
G1 E0.80000 F2100.00000
M204 S1000
G1 F1800
G1 X101.438 Y76.256 E0.40947
G1 X103.772 Y74.524 E0.11069
G1 X113.411 Y69.751 E0.40953
G1 X116.189 Y68.986 E0.10971
G1 X126.788 Y68.011 E0.40531
G1 X129.790 Y68.305 E0.11485
G1 X140.157 Y71.284 E0.41071
G1 X142.729 Y72.598 E0.10999
G1 X151.046 Y78.876 E0.39678
G1 X151.878 Y79.710 E0.04486
G1 X153.245 Y81.290 E0.07955
G1 X158.711 Y90.118 E0.39540
G1 X159.201 Y91.234 E0.04640
G1 X159.895 Y93.191 E0.07905
G1 X161.802 Y103.397 E0.39535
G1 X161.851 Y105.409 E0.07663
G1 X161.798 Y106.628 E0.04648
G1 X159.890 Y116.835 E0.39539
G1 X159.186 Y118.803 E0.07959
G1 X158.714 Y119.874 E0.04454
G1 X153.229 Y128.734 E0.39681
G1 X151.301 Y130.894 E0.11025
G1 X142.714 Y137.414 E0.41053
G1 X140.143 Y138.723 E0.10986
G1 X129.792 Y141.695 E0.41005
G1 X126.782 Y141.989 E0.11517
G1 X116.200 Y141.017 E0.40465
G1 X113.397 Y140.244 E0.11069
G1 X103.760 Y135.470 E0.40953
G1 X102.149 Y134.307 E0.07566
G1 X101.197 Y133.515 E0.04716
G1 X94.170 Y125.803 E0.39728
G1 X93.097 Y124.152 E0.07498
G1 X92.489 Y123.055 E0.04774
G1 X88.748 Y113.398 E0.39433
G1 X88.471 Y112.209 E0.04650
G1 X88.151 Y110.233 E0.07622
G1 X88.149 Y99.839 E0.39577
G1 X88.316 Y98.620 E0.04688
G1 X88.726 Y96.664 E0.07610
G1 X92.633 Y86.639 E0.40968
G1 X94.146 Y84.240 E0.10801
G1 F5760
G1 X95.626 Y82.620 E-0.76000
G1 E-0.04000 F2100.00000
G1 X120.208 Y102.093 F7200.000
G1 E0.80000 F2100.00000
G1 F1800
G1 X120.464 Y101.719 E0.01723
G1 X120.785 Y101.333 E0.01915
G1 X121.141 Y100.977 E0.01915
G1 X121.528 Y100.656 E0.01915
G1 X121.942 Y100.372 E0.01915
G1 X122.382 Y100.127 E0.01915
G1 X122.842 Y99.924 E0.01915
G1 X123.318 Y99.764 E0.01915
G1 X123.808 Y99.649 E0.01915
G1 X124.306 Y99.580 E0.01915
G1 X124.797 Y99.557 E0.01871
G1 X125.309 Y99.579 E0.01954
G1 X125.808 Y99.649 E0.01919
G1 X126.298 Y99.764 E0.01915
G1 X126.775 Y99.924 E0.01915
G1 X127.235 Y100.127 E0.01915
G1 X127.674 Y100.372 E0.01915
G1 X128.089 Y100.656 E0.01915
G1 X128.476 Y100.977 E0.01915
G1 X128.831 Y101.333 E0.01915
G1 X129.152 Y101.719 E0.01915
G1 X129.436 Y102.134 E0.01915
G1 X129.681 Y102.574 E0.01915
G1 X129.880 Y103.023 E0.01871
G1 X130.044 Y103.509 E0.01954
G1 X130.159 Y104.000 E0.01919
G1 X130.229 Y104.498 E0.01915
G1 X130.252 Y105.000 E0.01915
G1 X130.229 Y105.502 E0.01915
G1 X130.159 Y106.000 E0.01915
G1 X130.047 Y106.479 E0.01871
G1 X129.885 Y106.966 E0.01954
G1 X129.681 Y107.426 E0.01919
G1 X129.436 Y107.866 E0.01915
G1 X129.152 Y108.281 E0.01915
G1 X128.831 Y108.667 E0.01915
G1 X128.476 Y109.023 E0.01915
G1 X128.089 Y109.344 E0.01915
G1 X127.674 Y109.628 E0.01915
G1 X127.235 Y109.873 E0.01915
G1 X126.775 Y110.076 E0.01915
G1 X126.298 Y110.236 E0.01915
G1 X125.808 Y110.351 E0.01915
G1 X125.310 Y110.420 E0.01915
G1 X124.808 Y110.444 E0.01915
G1 X124.306 Y110.420 E0.01915
G1 X123.808 Y110.351 E0.01915
G1 X123.318 Y110.236 E0.01915
G1 X122.842 Y110.076 E0.01915
G1 X122.382 Y109.873 E0.01915
G1 X121.942 Y109.628 E0.01915
G1 X121.528 Y109.344 E0.01915
G1 X121.141 Y109.023 E0.01915
G1 X120.785 Y108.667 E0.01915
G1 X120.464 Y108.281 E0.01915
G1 X120.180 Y107.866 E0.01915
G1 X119.935 Y107.426 E0.01915
G1 X119.732 Y106.966 E0.01915
G1 X119.572 Y106.490 E0.01915
G1 X119.457 Y106.000 E0.01915
G1 X119.388 Y105.502 E0.01915
G1 X119.364 Y105.000 E0.01915
G1 X119.388 Y104.498 E0.01915
G1 X119.457 Y104.000 E0.01915
G1 X119.572 Y103.510 E0.01915
G1 X119.732 Y103.034 E0.01915
G1 X119.935 Y102.574 E0.01915
G1 X120.175 Y102.143 E0.01877
G1 X120.492 Y102.327 F7200.000
G1 F1800
G1 X120.757 Y101.940 E0.01786
G1 X121.056 Y101.580 E0.01786
G1 X121.388 Y101.248 E0.01786
G1 X121.749 Y100.948 E0.01786
G1 X122.135 Y100.683 E0.01786
G1 X122.545 Y100.455 E0.01786
G1 X122.974 Y100.266 E0.01786
G1 X123.419 Y100.117 E0.01786
G1 X123.875 Y100.009 E0.01786
G1 X124.340 Y99.945 E0.01786
G1 X124.797 Y99.924 E0.01744
G1 X125.276 Y99.945 E0.01825
G1 X125.741 Y100.009 E0.01788
G1 X126.197 Y100.117 E0.01786
G1 X126.642 Y100.266 E0.01786
G1 X127.071 Y100.455 E0.01786
G1 X127.481 Y100.683 E0.01786
G1 X127.868 Y100.948 E0.01786
G1 X128.228 Y101.248 E0.01786
G1 X128.560 Y101.580 E0.01786
G1 X128.860 Y101.940 E0.01786
G1 X129.125 Y102.327 E0.01786
G1 X129.353 Y102.737 E0.01786
G1 X129.538 Y103.156 E0.01744
G1 X129.691 Y103.610 E0.01825
G1 X129.799 Y104.067 E0.01788
G1 X129.863 Y104.532 E0.01786
G1 X129.885 Y105.000 E0.01786
G1 X129.863 Y105.468 E0.01786
G1 X129.799 Y105.933 E0.01786
G1 X129.694 Y106.379 E0.01744
G1 X129.543 Y106.833 E0.01825
G1 X129.353 Y107.263 E0.01788
G1 X129.125 Y107.673 E0.01786
G1 X128.860 Y108.060 E0.01786
G1 X128.560 Y108.420 E0.01786
G1 X128.228 Y108.752 E0.01786
G1 X127.868 Y109.052 E0.01786
G1 X127.481 Y109.317 E0.01786
G1 X127.071 Y109.545 E0.01786
G1 X126.642 Y109.734 E0.01786
G1 X126.197 Y109.883 E0.01786
G1 X125.741 Y109.991 E0.01786
G1 X125.277 Y110.055 E0.01786
G1 X124.808 Y110.077 E0.01786
G1 X124.340 Y110.055 E0.01786
G1 X123.875 Y109.991 E0.01786
G1 X123.419 Y109.883 E0.01786
G1 X122.974 Y109.734 E0.01786
G1 X122.545 Y109.545 E0.01786
G1 X122.135 Y109.317 E0.01786
G1 X121.749 Y109.052 E0.01786
G1 X121.388 Y108.752 E0.01786
G1 X121.056 Y108.420 E0.01786
G1 X120.757 Y108.060 E0.01786
G1 X120.492 Y107.673 E0.01786
G1 X120.263 Y107.263 E0.01786
G1 X120.074 Y106.834 E0.01786
G1 X119.925 Y106.389 E0.01786
G1 X119.818 Y105.933 E0.01786
G1 X119.753 Y105.468 E0.01786
G1 X119.731 Y105.000 E0.01786
G1 X119.753 Y104.532 E0.01786
G1 X119.818 Y104.067 E0.01786
G1 X119.925 Y103.611 E0.01786
G1 X120.074 Y103.166 E0.01786
G1 X120.263 Y102.737 E0.01786
G1 X120.462 Y102.380 E0.01557
G1 X120.782 Y102.558 F7200.000
G1 F1800
G1 X121.049 Y102.161 E0.01820
G1 X121.327 Y101.827 E0.01657
G1 X121.635 Y101.519 E0.01657
G1 X121.970 Y101.241 E0.01657
G1 X122.329 Y100.995 E0.01657
G1 X122.709 Y100.784 E0.01657
G1 X123.107 Y100.608 E0.01657
G1 X123.519 Y100.470 E0.01657
G1 X123.943 Y100.370 E0.01657
G1 X124.374 Y100.310 E0.01657
G1 X124.798 Y100.290 E0.01616
G1 X125.242 Y100.310 E0.01696
G1 X125.674 Y100.370 E0.01658
G1 X126.097 Y100.470 E0.01657
G1 X126.510 Y100.608 E0.01657
G1 X126.908 Y100.784 E0.01657
G1 X127.288 Y100.995 E0.01657
G1 X127.647 Y101.241 E0.01657
G1 X127.981 Y101.519 E0.01657
G1 X128.289 Y101.827 E0.01657
G1 X128.567 Y102.161 E0.01657
G1 X128.813 Y102.520 E0.01657
G1 X129.025 Y102.900 E0.01657
G1 X129.196 Y103.289 E0.01616
G1 X129.338 Y103.711 E0.01696
G1 X129.438 Y104.134 E0.01658
G1 X129.498 Y104.565 E0.01657
G1 X129.518 Y105.000 E0.01657
G1 X129.498 Y105.435 E0.01657
G1 X129.438 Y105.866 E0.01657
G1 X129.341 Y106.279 E0.01616
G1 X129.200 Y106.701 E0.01696
G1 X129.025 Y107.100 E0.01658
G1 X128.813 Y107.480 E0.01657
G1 X128.567 Y107.839 E0.01657
G1 X128.289 Y108.173 E0.01657
G1 X127.981 Y108.481 E0.01657
G1 X127.647 Y108.759 E0.01657
G1 X127.288 Y109.005 E0.01657
G1 X126.908 Y109.216 E0.01657
G1 X126.510 Y109.392 E0.01657
G1 X126.097 Y109.530 E0.01657
G1 X125.674 Y109.630 E0.01657
G1 X125.243 Y109.690 E0.01657
G1 X124.808 Y109.710 E0.01657
G1 X124.374 Y109.690 E0.01657
G1 X123.943 Y109.630 E0.01657
G1 X123.519 Y109.530 E0.01657
G1 X123.107 Y109.392 E0.01657
G1 X122.709 Y109.216 E0.01657
G1 X122.329 Y109.005 E0.01657
G1 X121.970 Y108.759 E0.01657
G1 X121.635 Y108.481 E0.01657
G1 X121.327 Y108.173 E0.01657
G1 X121.049 Y107.839 E0.01657
G1 X120.803 Y107.480 E0.01657
G1 X120.592 Y107.100 E0.01657
G1 X120.416 Y106.702 E0.01657
G1 X120.278 Y106.289 E0.01657
G1 X120.178 Y105.866 E0.01657
G1 X120.118 Y105.435 E0.01657
G1 X120.098 Y105.000 E0.01657
G1 X120.118 Y104.565 E0.01657
G1 X120.178 Y104.134 E0.01657
G1 X120.278 Y103.711 E0.01657
G1 X120.416 Y103.298 E0.01657
G1 X120.592 Y102.900 E0.01657
G1 X120.753 Y102.610 E0.01264
G1 X120.591 Y102.207 F7200.000
G1 F5760
G1 X121.049 Y102.161 E-0.18626
G1 F5760
G1 X121.327 Y101.827 E-0.15069
G1 F5760
G1 X121.635 Y101.519 E-0.15069
G1 F5760
G1 X121.970 Y101.241 E-0.15069
G1 F5760
G1 X122.259 Y101.043 E-0.12168
G1 E-0.04000 F2100.00000
G1 X95.786 Y87.803 F7200.000
G1 E0.80000 F2100.00000
G1 F1800
G1 X96.477 Y86.699 E0.04961
G1 X98.207 Y86.848 E0.06612
G1 X99.264 Y87.063 E0.04105
G1 X100.069 Y87.302 E0.03198
G1 X101.262 Y87.859 E0.05014
G1 X102.339 Y88.695 E0.05193
G1 X102.722 Y88.931 E0.01713
G1 X103.196 Y89.097 E0.01913
G1 X103.695 Y89.157 E0.01913
G1 X104.195 Y89.107 E0.01913
G1 X104.672 Y88.951 E0.01913
G1 X105.105 Y88.696 E0.01913
G1 X105.425 Y88.397 E0.01667
G1 X106.488 Y87.232 E0.06006
G1 X106.756 Y86.885 E0.01667
G1 X106.970 Y86.431 E0.01913
G1 X107.081 Y85.941 E0.01913
G1 X107.084 Y85.439 E0.01913
G1 X106.979 Y84.948 E0.01913
G1 X106.770 Y84.491 E0.01913
G1 X106.500 Y84.131 E0.01713
G1 X105.568 Y83.136 E0.05193
G1 X104.910 Y82.011 E0.04962
G1 X104.396 Y80.611 E0.05678
G1 X104.105 Y79.429 E0.04636
G1 X103.958 Y78.481 E0.03654
G1 X105.001 Y77.701 E0.04961
G1 X106.561 Y78.464 E0.06612
G1 X107.468 Y79.047 E0.04105
G1 X108.132 Y79.561 E0.03198
G1 X109.044 Y80.511 E0.05014
G1 X109.747 Y81.680 E0.05193
G1 X110.018 Y82.038 E0.01713
G1 X110.400 Y82.364 E0.01913
G1 X110.844 Y82.599 E0.01913
G1 X111.328 Y82.734 E0.01913
G1 X111.830 Y82.761 E0.01913
G1 X112.325 Y82.679 E0.01913
G1 X112.732 Y82.517 E0.01667
G1 X114.144 Y81.814 E0.06006
G1 X114.519 Y81.587 E0.01667
G1 X114.882 Y81.241 E0.01913
G1 X115.163 Y80.824 E0.01913
G1 X115.347 Y80.357 E0.01913
G1 X115.427 Y79.861 E0.01913
G1 X115.397 Y79.360 E0.01913
G1 X115.275 Y78.927 E0.01713
G1 X114.766 Y77.662 E0.05193
G1 X114.559 Y76.375 E0.04962
G1 X114.584 Y74.884 E0.05678
G1 X114.740 Y73.677 E0.04636
G1 X114.946 Y72.739 E0.03654
G1 X115.188 Y72.664 E0.00966
G1 X116.201 Y72.389 E0.03996
G1 X117.379 Y73.664 E0.06612
G1 X118.014 Y74.535 E0.04105
G1 X118.448 Y75.254 E0.03198
G1 X118.955 Y76.470 E0.05014
G1 X119.188 Y77.813 E0.05193
G1 X119.312 Y78.246 E0.01713
G1 X119.551 Y78.688 E0.01913
G1 X119.879 Y79.068 E0.01913
G1 X120.282 Y79.368 E0.01913
G1 X120.740 Y79.574 E0.01913
G1 X121.231 Y79.677 E0.01913
G1 X121.669 Y79.672 E0.01667
G1 X123.240 Y79.527 E0.06006
G1 X123.671 Y79.451 E0.01667
G1 X124.135 Y79.260 E0.01913
G1 X124.548 Y78.973 E0.01913
G1 X124.888 Y78.604 E0.01913
G1 X125.141 Y78.170 E0.01913
G1 X125.295 Y77.691 E0.01913
G1 X125.337 Y77.244 E0.01713
G1 X125.319 Y75.880 E0.05192
G1 X125.591 Y74.606 E0.04962
G1 X126.154 Y73.225 E0.05678
G1 X126.735 Y72.155 E0.04636
G1 X127.266 Y71.355 E0.03654
G1 X128.562 Y71.482 E0.04961
G1 X129.200 Y73.097 E0.06611
G1 X129.478 Y74.138 E0.04105
G1 X129.623 Y74.966 E0.03198
G1 X129.656 Y76.282 E0.05014
G1 X129.388 Y77.619 E0.05193
G1 X129.347 Y78.067 E0.01713
G1 X129.411 Y78.565 E0.01913
G1 X129.580 Y79.038 E0.01913
G1 X129.847 Y79.464 E0.01913
G1 X130.199 Y79.822 E0.01913
G1 X130.620 Y80.095 E0.01913
G1 X131.030 Y80.249 E0.01667
G1 X132.548 Y80.680 E0.06006
G1 X132.977 Y80.766 E0.01667
G1 X133.479 Y80.755 E0.01913
G1 X133.967 Y80.636 E0.01913
G1 X134.418 Y80.415 E0.01913
G1 X134.811 Y80.102 E0.01913
G1 X135.127 Y79.711 E0.01913
G1 X135.328 Y79.309 E0.01713
G1 X135.804 Y78.031 E0.05193
G1 X136.518 Y76.941 E0.04962
G1 X137.542 Y75.856 E0.05678
G1 X138.470 Y75.069 E0.04636
G1 X139.253 Y74.515 E0.03654
G1 X139.483 Y74.623 E0.00966
G1 X140.417 Y75.101 E0.03996
G1 X140.428 Y76.838 E0.06612
G1 X140.311 Y77.909 E0.04105
G1 X140.148 Y78.733 E0.03198
G1 X139.703 Y79.973 E0.05014
G1 X138.970 Y81.123 E0.05193
G1 X138.770 Y81.526 E0.01713
G1 X138.649 Y82.013 E0.01912
G1 X138.636 Y82.515 E0.01913
G1 X138.731 Y83.008 E0.01913
G1 X138.931 Y83.469 E0.01913
G1 X139.225 Y83.877 E0.01913
G1 X139.551 Y84.168 E0.01667
G1 X140.810 Y85.119 E0.06006
G1 X141.180 Y85.353 E0.01668
G1 X141.652 Y85.524 E0.01913
G1 X142.150 Y85.590 E0.01913
G1 X142.651 Y85.547 E0.01913
G1 X143.130 Y85.397 E0.01913
G1 X143.566 Y85.147 E0.01913
G1 X143.898 Y84.844 E0.01713
G1 X144.804 Y83.825 E0.05193
G1 X145.863 Y83.066 E0.04962
G1 X147.210 Y82.424 E0.05678
G1 X148.360 Y82.026 E0.04636
G1 X149.291 Y81.792 E0.03654
G1 X150.164 Y82.759 E0.04961
G1 X149.547 Y84.382 E0.06612
G1 X149.051 Y85.339 E0.04105
G1 X148.600 Y86.048 E0.03198
G1 X147.738 Y87.043 E0.05014
G1 X146.639 Y87.851 E0.05193
G1 X146.307 Y88.154 E0.01713
G1 X146.018 Y88.565 E0.01913
G1 X145.825 Y89.029 E0.01913
G1 X145.735 Y89.523 E0.01913
G1 X145.755 Y90.025 E0.01913
G1 X145.882 Y90.511 E0.01913
G1 X146.081 Y90.901 E0.01667
G1 X146.912 Y92.242 E0.06006
G1 X147.172 Y92.594 E0.01667
G1 X147.550 Y92.924 E0.01912
G1 X147.991 Y93.165 E0.01913
G1 X148.473 Y93.306 E0.01913
G1 X148.974 Y93.339 E0.01913
G1 X149.471 Y93.263 E0.01913
G1 X149.890 Y93.101 E0.01713
G1 X151.103 Y92.478 E0.05193
G1 X152.365 Y92.153 E0.04962
G1 X153.852 Y92.041 E0.05678
G1 X155.069 Y92.085 E0.04636
G1 X156.014 Y92.202 E0.03625
G1 X156.410 Y93.191 E0.04055
G1 X156.491 Y93.415 E0.00907
G1 X155.324 Y94.711 E0.06641
G1 X154.516 Y95.424 E0.04105
G1 X153.840 Y95.923 E0.03198
G1 X152.676 Y96.539 E0.05014
G1 X151.360 Y96.895 E0.05193
G1 X150.941 Y97.058 E0.01713
G1 X150.523 Y97.337 E0.01913
G1 X150.175 Y97.699 E0.01913
G1 X149.913 Y98.128 E0.01913
G1 X149.750 Y98.603 E0.01913
G1 X149.693 Y99.102 E0.01913
G1 X149.738 Y99.537 E0.01668
G1 X150.028 Y101.088 E0.06006
G1 X150.143 Y101.510 E0.01667
G1 X150.377 Y101.955 E0.01913
G1 X150.700 Y102.339 E0.01913
G1 X151.099 Y102.644 E0.01913
G1 X151.555 Y102.856 E0.01913
G1 X152.045 Y102.965 E0.01913
G1 X152.495 Y102.966 E0.01713
G1 X153.851 Y102.822 E0.05193
G1 X155.145 Y102.975 E0.04962
G1 X156.572 Y103.408 E0.05678
G1 X157.691 Y103.889 E0.04636
G1 X158.530 Y104.339 E0.03625
G1 X158.536 Y105.642 E0.04961
G1 X156.981 Y106.430 E0.06640
G1 X155.969 Y106.803 E0.04105
G1 X155.159 Y107.023 E0.03198
G1 X153.851 Y107.178 E0.05014
G1 X152.495 Y107.034 E0.05193
G1 X152.045 Y107.035 E0.01713
G1 X151.555 Y107.144 E0.01913
G1 X151.099 Y107.356 E0.01913
G1 X150.700 Y107.661 E0.01913
G1 X150.377 Y108.045 E0.01913
G1 X150.143 Y108.490 E0.01913
G1 X150.028 Y108.912 E0.01667
G1 X149.738 Y110.463 E0.06006
G1 X149.693 Y110.898 E0.01668
G1 X149.750 Y111.397 E0.01913
G1 X149.913 Y111.872 E0.01913
G1 X150.175 Y112.301 E0.01913
G1 X150.523 Y112.663 E0.01913
G1 X150.941 Y112.942 E0.01913
G1 X151.360 Y113.105 E0.01713
G1 X152.676 Y113.461 E0.05193
G1 X153.828 Y114.071 E0.04962
G1 X155.002 Y114.990 E0.05678
G1 X155.872 Y115.842 E0.04636
G1 X156.496 Y116.571 E0.03654
G1 X156.019 Y117.783 E0.04961
G1 X154.292 Y117.955 E0.06612
G1 X153.214 Y117.937 E0.04105
G1 X152.378 Y117.850 E0.03198
G1 X151.103 Y117.522 E0.05014
G1 X149.890 Y116.899 E0.05193
G1 X149.471 Y116.737 E0.01713
G1 X148.974 Y116.661 E0.01913
G1 X148.473 Y116.694 E0.01913
G1 X147.991 Y116.835 E0.01913
G1 X147.550 Y117.076 E0.01913
G1 X147.172 Y117.406 E0.01913
G1 X146.912 Y117.758 E0.01667
G1 X146.081 Y119.099 E0.06006
G1 X145.882 Y119.489 E0.01668
G1 X145.755 Y119.975 E0.01913
G1 X145.735 Y120.477 E0.01912
G1 X145.825 Y120.971 E0.01913
G1 X146.018 Y121.435 E0.01913
G1 X146.307 Y121.846 E0.01913
G1 X146.639 Y122.149 E0.01713
G1 X147.738 Y122.957 E0.05192
G1 X148.591 Y123.942 E0.04962
G1 X149.355 Y125.223 E0.05678
G1 X149.857 Y126.332 E0.04636
G1 X150.174 Y127.230 E0.03625
G1 X149.301 Y128.197 E0.04961
G1 X147.621 Y127.731 E0.06641
G1 X146.622 Y127.325 E0.04105
G1 X145.874 Y126.942 E0.03198
G1 X144.804 Y126.175 E0.05014
